X:0327
T:Linnen Hall.
M:6/8
L:1/8
Q:3/8=120
I: :: :: DC
P:ABA % Aird writes a da capo
Z:Jack Campin * www.campin.me.uk * 2009
K:G
P:A
G2G A2A|B2c dBG|E2E c2B |ABG FED|
G2G A2A|B2c dBG|EcB AGF |G3  G3:|
P:B
d2d e2e|d2g dBG|d2d e2e |dBG A3 |
d2d e2e|d2g g2f|egf ed^c|d3  D3:|

